Origami/24x24/apps/warzone2100.svg

<svg width="24" height="24" version="1" xmlns="http://www.w3.org/2000/svg">
 <rect x="3.5" y="11.5" width="17" height="6" rx="1" ry="1" style="opacity:.2"/>
 <path d="m7.1855 12 2.3145-4h5l2.5 4z" style="fill:#3f3f3f"/>
 <rect x="3.5" y="11" width="17" height="6" rx="1" ry="1" style="fill:#8e8e8e"/>
 <path d="m4.5 11c-0.554 0-1 0.446-1 1v3c0-0.554 0.446-1 1-1h15c0.554 0 1 0.446 1 1v-3c0-0.554-0.446-1-1-1z" style="fill:#ffffff;opacity:.1"/>
 <path d="m3 11c-0.554 0-1 0.446-1 1v0.5c0-0.554 0.446-1 1-1h17c0.554 0 1 0.446 1 1v-0.5c0-0.554-0.446-1-1-1z" style="fill:#ffffff;opacity:.1"/>
 <path d="m2.5 16h4c0.277 0 0.5 0.223 0.5 0.5v3.5c0 0.277-0.223 0.5-0.5 0.5h-4c-0.277 0-0.5-0.223-0.5-0.5v-3.5c0-0.277 0.223-0.5 0.5-0.5z" style="opacity:.2"/>
 <path d="m2.5 12h4c0.277 0 0.5 0.223 0.5 0.5v7c0 0.277-0.223 0.5-0.5 0.5h-4c-0.277 0-0.5-0.223-0.5-0.5v-7c0-0.277 0.223-0.5 0.5-0.5z" style="fill:#4f4f4f"/>
 <path d="m17.5 16h4c0.277 0 0.5 0.223 0.5 0.5v3.5c0 0.277-0.223 0.5-0.5 0.5h-4c-0.277 0-0.5-0.223-0.5-0.5v-3.5c0-0.277 0.223-0.5 0.5-0.5z" style="opacity:.2"/>
 <path d="m17.5 12h4c0.277 0 0.5 0.223 0.5 0.5v7c0 0.277-0.223 0.5-0.5 0.5h-4c-0.277 0-0.5-0.223-0.5-0.5v-7c0-0.277 0.223-0.5 0.5-0.5z" style="fill:#4f4f4f"/>
 <rect x="6" y="4" width="12" height="6.5" rx="1" ry="1" style="opacity:.2"/>
 <rect x="6" y="3" width="12" height="7" rx="1" ry="1" style="fill:#8e8e8e"/>
 <g transform="translate(0,-1)" style="fill:#3f3f3f">
  <rect x="7" y="5" width="2" height="2" rx=".5" ry=".5" style="fill:#3f3f3f"/>
  <rect x="9.5" y="5" width="2" height="2" rx=".5" ry=".5" style="fill:#3f3f3f"/>
  <rect x="12.5" y="5" width="2" height="2" rx=".5" ry=".5" style="fill:#3f3f3f"/>
  <rect x="15" y="5" width="2" height="2" rx=".5" ry=".5" style="fill:#3f3f3f"/>
  <rect x="15" y="8" width="2" height="2" rx=".5" ry=".5" style="fill:#3f3f3f"/>
  <rect x="12.5" y="8" width="2" height="2" rx=".5" ry=".5" style="fill:#3f3f3f"/>
  <rect x="9.5" y="8" width="2" height="2" rx=".5" ry=".5" style="fill:#3f3f3f"/>
  <rect x="7" y="8" width="2" height="2" rx=".5" ry=".5" style="fill:#3f3f3f"/>
 </g>
 <path d="m7 3c-0.554 0-1 0.446-1 1v0.5c0-0.554 0.446-1 1-1h10c0.554 0 1 0.446 1 1v-0.5c0-0.554-0.446-1-1-1z" style="fill:#ffffff;opacity:.2"/>
 <path d="m2.5 12c-0.277 0-0.5 0.223-0.5 0.5v1.5h5v-1.5c0-0.277-0.223-0.5-0.5-0.5h-4z" style="fill:#3f3f3f"/>
 <path d="m2 16h5v2h-5z" style="fill:#3f3f3f"/>
 <path d="m17.5 20c-0.277 0-0.5-0.223-0.5-0.5v-1.5h5v1.5c0 0.277-0.223 0.5-0.5 0.5h-4z" style="fill:#3f3f3f"/>
 <path d="m17 16h5v-2h-5z" style="fill:#3f3f3f"/>
</svg>

<svg xmlns="http://www.w3.org/2000/svg" width="24" height="24" version="1">
 <rect style="opacity:0.2" width="17" height="6" x="3.5" y="11.5" rx="1" ry="1"/>
 <path style="fill:#3f3f3f" d="M 7.1855,12 9.5,8 l 5,0 2.5,4 z"/>
 <rect style="fill:#8e8e8e" width="17" height="6" x="3.5" y="11" rx="1" ry="1"/>
 <path style="opacity:0.1;fill:#ffffff" d="m 4.5,11 c -0.554,0 -1,0.446 -1,1 l 0,3 c 0,-0.554 0.446,-1 1,-1 l 15,0 c 0.554,0 1,0.446 1,1 l 0,-3 c 0,-0.554 -0.446,-1 -1,-1 z"/>
 <path style="opacity:0.1;fill:#ffffff" d="m 3,11 c -0.554,0 -1,0.446 -1,1 l 0,0.5 c 0,-0.554 0.446,-1 1,-1 l 17,0 c 0.554,0 1,0.446 1,1 L 21,12 c 0,-0.554 -0.446,-1 -1,-1 z"/>
 <path style="opacity:0.2" d="m 2.5,16 4,0 C 6.777,16 7,16.223 7,16.5 L 7,20 c 0,0.277 -0.223,0.5 -0.5,0.5 l -4,0 C 2.223,20.5 2,20.277 2,20 L 2,16.5 C 2,16.223 2.223,16 2.5,16 Z"/>
 <path style="fill:#4f4f4f" d="m 2.5,12 4,0 C 6.777,12 7,12.223 7,12.5 l 0,7 C 7,19.777 6.777,20 6.5,20 l -4,0 C 2.223,20 2,19.777 2,19.5 l 0,-7 C 2,12.223 2.223,12 2.5,12 Z"/>
 <path style="opacity:0.2" d="m 17.5,16 4,0 c 0.277,0 0.5,0.223 0.5,0.5 l 0,3.5 c 0,0.277 -0.223,0.5 -0.5,0.5 l -4,0 C 17.223,20.5 17,20.277 17,20 l 0,-3.5 C 17,16.223 17.223,16 17.5,16 Z"/>
 <path style="fill:#4f4f4f" d="m 17.5,12 4,0 c 0.277,0 0.5,0.223 0.5,0.5 l 0,7 c 0,0.277 -0.223,0.5 -0.5,0.5 l -4,0 C 17.223,20 17,19.777 17,19.5 l 0,-7 C 17,12.223 17.223,12 17.5,12 Z"/>
 <rect style="opacity:0.2" width="12" height="6.5" x="6" y="4" rx="1" ry="1"/>
 <rect style="fill:#8e8e8e" width="12" height="7" x="6" y="3" rx="1" ry="1"/>
 <g style="fill:#3f3f3f" transform="translate(0,-1)">
  <rect width="2" height="2" x="7" y="5" rx=".5" ry=".5" style="fill:#3f3f3f"/>
  <rect width="2" height="2" x="9.5" y="5" rx=".5" ry=".5" style="fill:#3f3f3f"/>
  <rect width="2" height="2" x="12.5" y="5" rx=".5" ry=".5" style="fill:#3f3f3f"/>
  <rect width="2" height="2" x="15" y="5" rx=".5" ry=".5" style="fill:#3f3f3f"/>
  <rect width="2" height="2" x="15" y="8" rx=".5" ry=".5" style="fill:#3f3f3f"/>
  <rect width="2" height="2" x="12.5" y="8" rx=".5" ry=".5" style="fill:#3f3f3f"/>
  <rect width="2" height="2" x="9.5" y="8" rx=".5" ry=".5" style="fill:#3f3f3f"/>
  <rect width="2" height="2" x="7" y="8" rx=".5" ry=".5" style="fill:#3f3f3f"/>
 </g>
 <path style="opacity:0.2;fill:#ffffff" d="M 7,3 C 6.446,3 6,3.446 6,4 l 0,0.5 c 0,-0.554 0.446,-1 1,-1 l 10,0 c 0.554,0 1,0.446 1,1 L 18,4 C 18,3.446 17.554,3 17,3 Z"/>
 <path style="fill:#3f3f3f" d="M 2.5,12 C 2.223,12 2,12.223 2,12.5 L 2,14 7,14 7,12.5 C 7,12.223 6.777,12 6.5,12 l -4,0 z"/>
 <path d="m 2,16 5,0 0,2 -5,0 z" style="fill:#3f3f3f"/>
 <path d="M 17.5,20 C 17.223,20 17,19.777 17,19.5 l 0,-1.5 5,0 0,1.5 c 0,0.277 -0.223,0.5 -0.5,0.5 l -4,0 z" style="fill:#3f3f3f"/>
 <path style="fill:#3f3f3f" d="m 17,16 5,0 0,-2 -5,0 z"/>
</svg>
